X: 10910
T: Drowsy Maggie
R: reel
M: 4/4
K: Edorian
E2BE dEBE|E2BE AFDF|E2BE dEBE|BABc dAFD|
E2BE E2 BE|E2 BE AF D2|E2BE dEBE|BABc dAFD||
defd cdec|defd fa a2|defd cdec|BABc dAFA|
defd cdec|defd fa a2|afge fdec|BABc dAFD||

